X:284
T: Bei der Nacht (42e), S. 140
N: T0173
O: Luxemburg
S: Singendes Volk, Esch-Alzette 1937 posth.]
N: Heffingen, hhh Nikolaus Ewen, 2.6.1935
R: Liebeslieder]
M: 4/4
L: 1/8
K: D
D2 | F2F2E2E2 | D2z4
D2 | F2D2F2DF | AAABA2
A2 | G2G2G2A2 | F2z4
F2 | A3FA3d | B4B4
AAFFAAFF | AAABAA
A2 | G2G2G2A2 | F2FFFF

